X:123
T:Naima
C:John Coltrane - Arr. Dave Cotton
N:From John Baldry's "Bluegrass and Old-Time Mandolin" TablEdited by Mike Stangeland
L:1/8
Q:1/4=58
M:4/4
K:C
z8 | "Am9"B6 (3BAd | "Fmaj7"E8 | "Abmaj7"G4 "F#maj7"F2 (3FDF | "Gmaj7"D8 | "Bbmaj7"A6 (3AAA | 
"Gm(maj7)"^F6 (3FDE | "Bbmaj7"A6 AA | "Gm(maj7)"^F6 (3FED | "Cmaj7(#5)"c6 (3cAc | 
"Bbmaj7"A6 (3AFA | "Gmaj7"^F6 (3FDF | "Ebmaj7"D8 | "Am9"B6 (3BAd | "Fmaj7"E8 | 
"Abmaj7"G4 "F#maj7"(3zF (3zDF | "Gmaj7"D8 | "Abmaj7"G4 "F#maj7"(3zF (3zDF | "Gmaj7"D8 | 
"Abmaj7"G4 "F#maj7"(3zF (3zDF | "Gmaj7"D8 | "Abmaj7"G4 "F#maj7"(3zF (3zDF | "Gmaj7"D4 "Cmaj7"E4 | 
"Gmaj7"^F4 "Cmaj7"G4 | "Gmaj7"A4 "Cmaj7"B3G | "Gmaj7"d8 | 


